a/assets/inline-svg/app-colored-icons/color-project.svg

<svg width="16" height="16" viewBox="0 0 16 16" fill="none" xmlns="http://www.w3.org/2000/svg">
<path fill-rule="evenodd" clip-rule="evenodd" d="M12.9 2.75H11.46C11.2937 1.74138 10.4222 1.00106 9.40001 1H6.60001C5.57778 1.00106 4.70631 1.74138 4.54001 2.75H3.10001C1.94249 2.75547 1.00549 3.69248 1.00001 4.85V7.65C0.997909 8.24365 1.25326 8.80906 1.70001 9.2V12.2C1.70001 12.9426 1.99501 13.6548 2.52011 14.1799C3.04522 14.705 3.75741 15 4.50001 15H11.5C12.2426 15 12.9548 14.705 13.4799 14.1799C14.005 13.6548 14.3 12.9426 14.3 12.2V9.2C14.7468 8.80906 15.0021 8.24365 15 7.65V4.85C14.9945 3.69248 14.0575 2.75547 12.9 2.75ZM6.60001 2.4H9.40001C9.64485 2.40371 9.86938 2.53691 9.99001 2.75H6.00001C6.12242 2.53383 6.35159 2.40015 6.60001 2.4ZM2.40001 4.85C2.40001 4.4634 2.71341 4.15 3.10001 4.15H12.9C13.2866 4.15 13.6 4.4634 13.6 4.85V7.65C13.6035 7.90199 13.4693 8.13584 13.25 8.26C13.1427 8.31886 13.0224 8.34981 12.9 8.35H10C9.70743 7.73308 9.08276 7.34266 8.40001 7.35H7.70001C7.01727 7.34266 6.3926 7.73308 6.10001 8.35H3.10001C2.97765 8.34981 2.85729 8.31886 2.75001 8.26C2.5307 8.13584 2.39653 7.90199 2.40001 7.65V4.85ZM8.70001 9.05C8.70009 9.24498 8.54492 9.40458 8.35001 9.41H7.65001C7.45511 9.40458 7.29994 9.24498 7.30001 9.05C7.30543 8.86062 7.46055 8.70992 7.65001 8.71H8.35001C8.53947 8.70992 8.6946 8.86062 8.70001 9.05ZM11.5 13.6H4.50001C3.72681 13.6 3.10001 12.9732 3.10001 12.2V9.75H6.05001C6.32475 10.3904 6.95321 10.8067 7.65001 10.81H8.35001C9.06493 10.827 9.71825 10.4073 10 9.75H13V12.2C13.001 12.5893 12.8399 12.9614 12.5553 13.2271C12.2707 13.4927 11.8883 13.6278 11.5 13.6Z" fill="#2C5CC5"/>
<path d="M12.9 2.75L12.9007 2.6H12.9V2.75ZM11.46 2.75L11.312 2.7744L11.3327 2.9H11.46V2.75ZM9.40001 1L9.40017 0.85H9.40001V1ZM6.60001 1V0.85L6.59986 0.85L6.60001 1ZM4.54001 2.75V2.9H4.66731L4.68801 2.7744L4.54001 2.75ZM3.10001 2.75V2.6L3.0993 2.6L3.10001 2.75ZM1.00001 4.85L0.850013 4.84929V4.85H1.00001ZM1.00001 7.65L1.15001 7.65053V7.65H1.00001ZM1.70001 9.2H1.85001V9.13194L1.79879 9.08712L1.70001 9.2ZM1.70001 12.2H1.85001H1.70001ZM14.3 9.2L14.2012 9.08712L14.15 9.13194V9.2H14.3ZM15 7.65H14.85L14.85 7.65053L15 7.65ZM15 4.85H15.15L15.15 4.84929L15 4.85ZM9.40001 2.4L9.40229 2.25H9.40001V2.4ZM9.99001 2.75V2.9H10.2473L10.1205 2.6761L9.99001 2.75ZM6.00001 2.75L5.86949 2.67609L5.74269 2.9H6.00001V2.75ZM2.40001 4.85H2.55001H2.40001ZM13.6 7.65H13.45L13.45 7.65208L13.6 7.65ZM13.25 8.26L13.3222 8.39152L13.3239 8.39053L13.25 8.26ZM12.9 8.35V8.5L12.9002 8.5L12.9 8.35ZM10 8.35L9.86448 8.41428L9.90514 8.5H10V8.35ZM8.40001 7.35V7.50001L8.40163 7.49999L8.40001 7.35ZM7.70001 7.35L7.6984 7.5H7.70001V7.35ZM6.10001 8.35V8.5H6.19489L6.23554 8.41428L6.10001 8.35ZM3.10001 8.35L3.09978 8.5H3.10001V8.35ZM2.75001 8.26L2.67611 8.39055L2.67786 8.39151L2.75001 8.26ZM2.40001 7.65L2.55001 7.65208V7.65H2.40001ZM8.35001 9.41V9.56006L8.35418 9.55994L8.35001 9.41ZM7.65001 9.41L7.64584 9.56H7.65001V9.41ZM7.30001 9.05L7.15001 9.04571L7.15001 9.04994L7.30001 9.05ZM7.65001 8.71L7.64995 8.86H7.65001V8.71ZM8.35001 8.71V8.86H8.35007L8.35001 8.71ZM3.10001 9.75V9.6H2.95001V9.75H3.10001ZM6.05001 9.75L6.18786 9.69086L6.14888 9.6H6.05001V9.75ZM7.65001 10.81L7.64931 10.96H7.65001V10.81ZM8.35001 10.81L8.35358 10.66H8.35001V10.81ZM10 9.75V9.6H9.90111L9.86215 9.6909L10 9.75ZM13 9.75H13.15V9.6H13V9.75ZM13 12.2H12.85L12.85 12.2004L13 12.2ZM12.9 2.6H11.46V2.9H12.9V2.6ZM11.608 2.7256C11.4298 1.64459 10.4958 0.851132 9.40017 0.85L9.39986 1.15C10.3487 1.15098 11.1576 1.83817 11.312 2.7744L11.608 2.7256ZM9.40001 0.85H6.60001V1.15H9.40001V0.85ZM6.59986 0.85C5.50426 0.851132 4.57024 1.64459 4.39201 2.7256L4.68801 2.7744C4.84238 1.83817 5.6513 1.15098 6.60017 1.15L6.59986 0.85ZM4.54001 2.6H3.10001V2.9H4.54001V2.6ZM3.0993 2.6C1.85949 2.60586 0.855877 3.60948 0.850015 4.84929L1.15001 4.85071C1.1551 3.77547 2.02549 2.90508 3.10072 2.9L3.0993 2.6ZM0.850013 4.85V7.65H1.15001V4.85H0.850013ZM0.850014 7.64947C0.847756 8.28656 1.12179 8.89334 1.60123 9.31288L1.79879 9.08712C1.38473 8.72478 1.14806 8.20074 1.15001 7.65053L0.850014 7.64947ZM1.55001 9.2V12.2H1.85001V9.2H1.55001ZM1.55001 12.2C1.55001 12.9824 1.86082 13.7327 2.41405 14.286L2.62618 14.0738C2.12921 13.5769 1.85001 12.9028 1.85001 12.2H1.55001ZM2.41405 14.286C2.96728 14.8392 3.71762 15.15 4.50001 15.15V14.85C3.79719 14.85 3.12315 14.5708 2.62618 14.0738L2.41405 14.286ZM4.50001 15.15H11.5V14.85H4.50001V15.15ZM11.5 15.15C12.2824 15.15 13.0327 14.8392 13.586 14.286L13.3738 14.0738C12.8769 14.5708 12.2028 14.85 11.5 14.85V15.15ZM13.586 14.286C14.1392 13.7327 14.45 12.9824 14.45 12.2H14.15C14.15 12.9028 13.8708 13.5769 13.3738 14.0738L13.586 14.286ZM14.45 12.2V9.2H14.15V12.2H14.45ZM14.3988 9.31288C14.8782 8.89334 15.1523 8.28656 15.15 7.64947L14.85 7.65053C14.852 8.20074 14.6153 8.72478 14.2012 9.08712L14.3988 9.31288ZM15.15 7.65V4.85H14.85V7.65H15.15ZM15.15 4.84929C15.1441 3.60948 14.1405 2.60586 12.9007 2.6L12.8993 2.9C13.9745 2.90508 14.8449 3.77547 14.85 4.85071L15.15 4.84929ZM6.60001 2.55H9.40001V2.25H6.60001V2.55ZM9.39774 2.54998C9.58935 2.55289 9.76507 2.65713 9.85948 2.8239L10.1205 2.6761C9.97369 2.41669 9.70035 2.25454 9.40229 2.25002L9.39774 2.54998ZM9.99001 2.6H6.00001V2.9H9.99001V2.6ZM6.13054 2.82391C6.22634 2.65474 6.40569 2.55012 6.6001 2.55L6.59992 2.25C6.29749 2.25018 6.01851 2.41292 5.86949 2.67609L6.13054 2.82391ZM2.55001 4.85C2.55001 4.54624 2.79626 4.3 3.10001 4.3V4C2.63057 4 2.25001 4.38056 2.25001 4.85H2.55001ZM3.10001 4.3H12.9V4H3.10001V4.3ZM12.9 4.3C13.2038 4.3 13.45 4.54624 13.45 4.85H13.75C13.75 4.38056 13.3695 4 12.9 4V4.3ZM13.45 4.85V7.65H13.75V4.85H13.45ZM13.45 7.65208C13.4528 7.84929 13.3477 8.0323 13.1761 8.12947L13.3239 8.39053C13.5909 8.23938 13.7542 7.9547 13.75 7.64792L13.45 7.65208ZM13.1779 8.12849C13.0926 8.17526 12.997 8.19985 12.8998 8.2L12.9002 8.5C13.0478 8.49977 13.1928 8.46246 13.3222 8.39151L13.1779 8.12849ZM12.9 8.2H10V8.5H12.9V8.2ZM10.1355 8.28572C9.81788 7.61592 9.13967 7.19204 8.3984 7.20001L8.40163 7.49999C9.02585 7.49328 9.59698 7.85023 9.86448 8.41428L10.1355 8.28572ZM8.40001 7.2H7.70001V7.5H8.40001V7.2ZM7.70163 7.20001C6.96036 7.19204 6.28214 7.61592 5.96448 8.28572L6.23554 8.41428C6.50305 7.85023 7.07417 7.49328 7.6984 7.49999L7.70163 7.20001ZM6.10001 8.2H3.10001V8.5H6.10001V8.2ZM3.10025 8.2C3.00303 8.19985 2.9074 8.17526 2.82217 8.12849L2.67786 8.39151C2.80718 8.46246 2.95227 8.49977 3.09978 8.5L3.10025 8.2ZM2.82391 8.12947C2.65228 8.0323 2.54727 7.84929 2.55 7.65208L2.25003 7.64792C2.24578 7.9547 2.40913 8.23938 2.67611 8.39053L2.82391 8.12947ZM2.55001 7.65V4.85H2.25001V7.65H2.55001ZM8.55001 9.05006C8.55006 9.1638 8.45954 9.2569 8.34585 9.26006L8.35418 9.55994C8.6303 9.55227 8.85012 9.32617 8.85001 9.04994L8.55001 9.05006ZM8.35001 9.26H7.65001V9.56H8.35001V9.26ZM7.65418 9.26006C7.54048 9.2569 7.44997 9.1638 7.45001 9.05006L7.15001 9.04994C7.14991 9.32617 7.36973 9.55227 7.64585 9.55994L7.65418 9.26006ZM7.44995 9.05429C7.45304 8.94607 7.54169 8.85996 7.64995 8.86L7.65007 8.56C7.37942 8.55989 7.15781 8.77517 7.15007 9.04571L7.44995 9.05429ZM7.65001 8.86H8.35001V8.56H7.65001V8.86ZM8.35007 8.86C8.45834 8.85996 8.54698 8.94607 8.55007 9.05429L8.84995 9.04571C8.84222 8.77517 8.62061 8.55989 8.34995 8.56L8.35007 8.86ZM11.5 13.45H4.50001V13.75H11.5V13.45ZM4.50001 13.45C3.80966 13.45 3.25001 12.8904 3.25001 12.2H2.95001C2.95001 13.056 3.64397 13.75 4.50001 13.75V13.45ZM3.25001 12.2V9.75H2.95001V12.2H3.25001ZM3.10001 9.9H6.05001V9.6H3.10001V9.9ZM5.91216 9.80914C6.21045 10.5044 6.89278 10.9564 7.64931 10.96L7.65072 10.66C7.01364 10.657 6.43905 10.2763 6.18786 9.69086L5.91216 9.80914ZM7.65001 10.96H8.35001V10.66H7.65001V10.96ZM8.34645 10.96C9.12265 10.9784 9.83197 10.5227 10.1379 9.8091L9.86215 9.6909C9.60454 10.2918 9.00721 10.6756 8.35358 10.66L8.34645 10.96ZM10 9.9H13V9.6H10V9.9ZM12.85 9.75V12.2H13.15V9.75H12.85ZM12.85 12.2004C12.8509 12.548 12.707 12.8802 12.4529 13.1174L12.6576 13.3367C12.9727 13.0426 13.1511 12.6306 13.15 12.1996L12.85 12.2004ZM12.4529 13.1174C12.1988 13.3546 11.8574 13.4752 11.5107 13.4504L11.4893 13.7496C11.9192 13.7804 12.3425 13.6308 12.6576 13.3367L12.4529 13.1174Z" fill="#E5F2FD"/>
</svg>

<svg xmlns="http://www.w3.org/2000/svg" width="16" height="16" fill="none"><g clip-path="url(#color-project 1__a)"><mask id="fs-vtquyhpvla" style="mask-type:luminance" width="16" height="16" x="0" y="0" maskUnits="userSpaceOnUse"><path fill="#fff" d="M0 0h16v16H0V0z"/></mask><g mask="url(#fs-vtquyhpvla)"><path fill="#2C5CC5" fill-rule="evenodd" d="M12.9 2.75h-1.44A2.09 2.09 0 009.4 1H6.6a2.09 2.09 0 00-2.06 1.75H3.1A2.11 2.11 0 001 4.85v2.8a2.05 2.05 0 00.7 1.55v3A2.8 2.8 0 004.5 15h7a2.8 2.8 0 002.8-2.8v-3a2.05 2.05 0 00.7-1.55v-2.8a2.11 2.11 0 00-2.1-2.1zM6.6 2.4h2.8a.69.69 0 01.59.35H6a.69.69 0 01.6-.35zM2.4 4.85a.7.7 0 01.7-.7h9.8a.7.7 0 01.7.7v2.8a.689.689 0 01-.7.7H10a1.75 1.75 0 00-1.6-1h-.7a1.75 1.75 0 00-1.6 1h-3a.69.69 0 01-.7-.7v-2.8zm6.3 4.2a.36.36 0 01-.35.36h-.7a.36.36 0 01-.35-.36.35.35 0 01.35-.34h.7c.19 0 .345.15.35.34zm2.8 4.55h-7a1.4 1.4 0 01-1.4-1.4V9.75h2.95a1.75 1.75 0 001.6 1.06h.7A1.75 1.75 0 0010 9.75h3v2.45a1.398 1.398 0 01-1.5 1.4z" clip-rule="evenodd"/></g></g><defs><clipPath id="color-project 1__a"><path fill="#fff" d="M0 0h16v16H0z"/></clipPath></defs></svg>
